Sources/FrostedUI/Resources/Icons.xcassets/downloadDocument32.imageset/download-document-32.svg

<svg width="32" height="32" viewBox="0 0 32 32" fill="none" xmlns="http://www.w3.org/2000/svg" data-fui-icon="true">
  <path
    d="M15.8958 2.91663C16.8017 2.91672 17.6711 3.27695 18.3118 3.9176L25.4163 11.0221C26.0569 11.6628 26.4163 12.5321 26.4163 13.4381V25.6666C26.4163 27.5535 24.8871 29.0834 23.0002 29.0836H9.00024C7.11328 29.0836 5.58325 27.5536 5.58325 25.6666V6.33362C5.58325 4.44664 7.11327 2.91663 9.00024 2.91663H15.8958ZM9.00024 4.41663C7.9417 4.41663 7.08325 5.27507 7.08325 6.33362V25.6666C7.08325 26.7252 7.94169 27.5836 9.00024 27.5836H23.0002C24.0587 27.5834 24.9163 26.7251 24.9163 25.6666V13.4381C24.9163 13.3183 24.9039 13.1997 24.8821 13.0836H19.6663C17.7794 13.0834 16.2502 11.5535 16.2502 9.66663V4.44983C16.1342 4.42796 16.0155 4.41665 15.8958 4.41663H9.00024ZM16.3127 14.7496C16.7267 14.7498 17.0626 15.0857 17.0627 15.4996V21.3619L18.1262 20.2985C18.419 20.0056 18.8939 20.0058 19.1868 20.2985C19.4794 20.5914 19.4796 21.0662 19.1868 21.359L17.1262 23.4196C16.6381 23.9074 15.8467 23.9074 15.3586 23.4196L13.47 21.5299C13.1771 21.237 13.1771 20.7622 13.47 20.4694C13.7629 20.1768 14.2377 20.1766 14.5305 20.4694L15.5627 21.5016V15.4996C15.5629 15.0856 15.8986 14.7496 16.3127 14.7496ZM17.7502 9.66663C17.7502 10.7251 18.6078 11.5834 19.6663 11.5836H23.8557L17.7502 5.47815V9.66663Z"
    fill="currentColor"
  />
</svg>

<svg xmlns="http://www.w3.org/2000/svg" width="32" height="32" fill="none" data-fui-icon="true" viewBox="0 0 32 32"><path fill="currentColor" d="M15.896 2.917c.906 0 1.775.36 2.416 1l7.104 7.105c.64.64 1 1.51 1 2.416v12.229A3.417 3.417 0 0 1 23 29.084H9a3.417 3.417 0 0 1-3.417-3.417V6.334A3.417 3.417 0 0 1 9 2.917zM9 4.417a1.917 1.917 0 0 0-1.917 1.917v19.333c0 1.058.859 1.917 1.917 1.917h14a1.917 1.917 0 0 0 1.916-1.917V13.438q0-.18-.034-.354h-5.216a3.417 3.417 0 0 1-3.416-3.417V4.45a2 2 0 0 0-.354-.033zm7.313 10.333a.75.75 0 0 1 .75.75v5.862l1.063-1.063a.75.75 0 0 1 1.06 1.06l-2.06 2.06a1.25 1.25 0 0 1-1.767 0l-1.889-1.89a.75.75 0 1 1 1.06-1.06l1.033 1.033V15.5a.75.75 0 0 1 .75-.75m1.437-5.083c0 1.058.858 1.916 1.916 1.917h4.19L17.75 5.478z"/></svg>
